svgs/light/skull.svg

<svg xmlns="http://www.w3.org/2000/svg" viewBox="0 0 512 512"><!-- Font Awesome Pro 6.0.0-alpha2 by @fontawesome - https://fontawesome.com License - https://fontawesome.com/license (Commercial License) --><path d="M160 192C124.666 192 96 220.666 96 256C96 291.332 124.666 320 160 320S224 291.332 224 256C224 220.666 195.334 192 160 192ZM160 288C142.301 288 128 273.699 128 256C128 238.299 142.301 224 160 224S192 238.299 192 256C192 273.699 177.699 288 160 288ZM256 0C114.625 0 0 100.25 0 224C0 294.125 36.875 356.625 94.5 397.75C104.25 404.625 109.75 415.75 108 427.625L100.875 448.875C90.625 480 113.75 512 146.5 512H365.5C398.25 512 421.375 480 411.125 448.875L404 427.625C402.25 415.875 407.75 404.625 417.5 397.75C475.125 356.625 512 294.125 512 224C512 100.25 397.375 0 256 0ZM398.875 371.625C379.25 385.625 369 408.75 372.25 432C372.994 436.096 371.826 432.258 380.75 458.875C383 466.152 379.459 479.875 365.5 479.875H320V431.875C320 423.074 312.801 415.875 304 415.875S288 423.074 288 431.875V479.875H224V431.875C224 423.074 216.801 415.875 208 415.875S192 423.074 192 431.875V479.875H146.5C135.164 479.875 127.932 468.832 131.25 458.875C140.176 432.254 139.004 436.1 139.75 432C143 408.75 132.75 385.625 113.125 371.625C61.5 334.875 32 281.125 32 224C32 118.125 132.5 32 256 32S480 118.125 480 224C480 281.125 450.5 334.875 398.875 371.625ZM352 192C316.666 192 288 220.666 288 256C288 291.332 316.666 320 352 320S416 291.332 416 256C416 220.666 387.334 192 352 192ZM352 288C334.301 288 320 273.699 320 256C320 238.299 334.301 224 352 224S384 238.299 384 256C384 273.699 369.699 288 352 288Z"/></svg>

<svg xmlns="http://www.w3.org/2000/svg" viewBox="0 0 512 512"><!--! Font Awesome Pro 6.0.0-alpha3 by @fontawesome - https://fontawesome.com License - https://fontawesome.com/license (Commercial License) --><path d="M160 192C124.7 192 96 220.7 96 256c0 35.33 28.67 64 64 64s64-28.67 64-64C224 220.7 195.3 192 160 192zM160 288C142.3 288 128 273.7 128 256c0-17.7 14.3-32 32-32s32 14.3 32 32C192 273.7 177.7 288 160 288zM256 0C114.6 0 0 100.3 0 224c0 70.13 36.88 132.6 94.5 173.7c9.75 6.875 15.25 18.02 13.5 29.89l-7.125 21.27C90.63 480 113.8 512 146.5 512h219c32.75 0 55.88-32 45.63-63.13l-7.094-21.27c-1.75-11.75 3.75-23.02 13.5-29.89C475.2 356.6 512 294.1 512 224C512 100.3 397.4 0 256 0zM398.9 371.6c-19.62 14-29.88 37.13-26.62 60.38c.7441 4.096-.4238 .2578 8.5 26.88c2.25 7.277-1.291 21-15.25 21H320v-48c0-8.801-7.199-16-16-16s-16 7.199-16 16v48H224v-48c0-8.801-7.199-16-16-16s-16 7.199-16 16v48H146.5c-11.34 0-18.57-11.04-15.25-21C140.2 432.3 139 436.1 139.8 432c3.25-23.25-7-46.38-26.62-60.38C61.5 334.9 32 281.1 32 224c0-105.9 100.5-192 224-192s224 86.13 224 192C480 281.1 450.5 334.9 398.9 371.6zM352 192c-35.33 0-64 28.67-64 64c0 35.33 28.67 64 64 64s64-28.67 64-64C416 220.7 387.3 192 352 192zM352 288c-17.7 0-32-14.3-32-32c0-17.7 14.3-32 32-32s32 14.3 32 32C384 273.7 369.7 288 352 288z"/></svg>
